X:135
T:John H Stuntz Quickstep
S:American Veteran Fifer #135
C:To John H. Stuntz, Pasadena Cal. Fifer Co.I.10th Pa. By A.F. Hopkins
M:2/4
L:1/8
Q:1/8=180
K:D 
%%MIDI program 72
%%MIDI transpose 8
%%MIDI ratio 3 1
((3A/B/c/) | df2 e/d/ | fa2 f/a/ | b/a/f/a/ f/e/d/e/ | fe2 f/e/ |
df2 e/d/ | fa2 f/a/ | b/a/f/a/ g/e/B/c/ | dfd :|
|: c/d/ | ee- e/c/e/g/ | ff2 e/f/ | gg/a/ g/e/g/a/ | ba2 a/g/ |
f/g/a/b/ a/f/g/e/ | fb a2 | fa- a/b/g/e/ | dfd :|



